src/client/static/images/curly-bracket--close-blue.svg

<?xml version="1.0" encoding="UTF-8"?>
<svg width="79px" height="301px" viewBox="0 0 79 301" version="1.1" xmlns="http://www.w3.org/2000/svg" xmlns:xlink="http://www.w3.org/1999/xlink">
    <!-- Generator: Sketch 51.2 (57519) - http://www.bohemiancoding.com/sketch -->
    <title>curly-bracket--close-blue</title>
    <desc>Created with Sketch.</desc>
    <defs></defs>
    <g id="Page-1" stroke="none" stroke-width="1" fill="none" fill-rule="evenodd">
        <g id="curly-bracket--close-blue" transform="translate(39.123690, 150.500000) scale(-1, 1) translate(-39.123690, -150.500000) " fill="#0000FF" fill-rule="nonzero">
            <g transform="translate(39.123690, 150.500000) scale(-1, 1) translate(-39.123690, -150.500000) " id="Shape">
                <path d="M3.46244654,301 C10.3657456,300.051319 17.1922127,298.609307 23.8894298,296.685036 C29.6603843,294.960228 34.4498812,292.544025 38.2579203,289.436426 C42.0500792,286.352229 45.0231219,282.380442 46.9137212,277.872851 C48.8757952,273.270138 49.8568323,267.517273 49.8568323,260.614256 C49.8568323,256.011543 49.6254556,250.833754 49.1627023,245.080889 C48.699949,239.328024 48.1808239,233.402257 47.605327,227.303589 C47.0281474,221.203659 46.508812,215.220679 46.0473208,209.35465 C45.5858295,203.488621 45.3544528,198.13814 45.3531908,193.30321 C45.3531908,185.941225 46.276594,180.015669 48.1234004,175.526541 C49.9702069,171.037413 52.4522474,167.585484 55.569522,165.170753 C58.6676954,162.762289 62.2837265,161.10766 66.1316562,160.337715 C70.1188934,159.525694 74.178305,159.12081 78.2473795,159.129298 L78.2473795,143.596562 C74.1783207,143.604732 70.1189407,143.199851 66.1316562,142.388145 C62.284447,141.618109 58.6690975,139.963711 55.5714151,137.555738 C52.4554025,135.139324 49.973362,131.687395 48.1252935,127.19995 C46.277225,122.712505 45.3538218,116.786948 45.3550839,109.423281 C45.3550839,104.590874 45.5864605,99.1829706 46.0492138,93.1995702 C46.5119671,87.2161698 47.0310922,81.1172914 47.6065891,74.902935 C48.183348,68.6889995 48.7024731,62.5907519 49.1639644,56.6081929 C49.6254556,50.6256338 49.8564116,45.2181509 49.8568323,40.3857442 C49.8568323,33.4823061 48.8757952,27.7292306 46.9137212,23.1265178 C45.0230325,18.6191559 42.0499962,14.6475938 38.2579203,11.5635744 C34.4498812,8.45723758 29.6603843,6.04103424 23.8894298,4.31496436 C17.1922127,2.39069376 10.3657456,0.948681388 3.46244654,0 L0,14.1526792 C6.23202516,15.5333669 11.5408574,16.7989972 15.9264969,17.9495702 C20.3121363,19.1001432 23.7745828,20.4808309 26.3138365,22.0916331 C28.7686646,23.6053072 30.7017414,25.8336631 31.8536247,28.4776289 C33.0079839,31.1241572 33.5849532,34.6335101 33.5845325,39.0056876 C33.4871286,50.3103978 32.7937187,61.6021091 31.5071908,72.8337966 C30.1436357,85.329392 29.4501956,97.8890404 29.4298491,110.458797 C29.4298491,117.822885 30.1799301,123.863498 31.6800922,128.580637 C32.9254542,132.780834 34.8558632,136.746552 37.393413,140.317744 C39.4901387,143.23783 42.2101311,145.654978 45.3563459,147.394084 C48.2666702,148.96337 51.2734292,150.346825 54.3585807,151.536147 C51.2733173,152.725204 48.2665418,154.108666 45.3563459,155.67821 C42.2414922,157.387435 39.5268407,159.741108 37.393413,162.582279 C34.8319368,166.075922 32.8978162,169.988577 31.6775681,174.145222 C30.1778267,178.862782 29.4277457,184.903396 29.4273249,192.267063 C29.4352996,204.607583 30.1288154,216.938133 31.5046667,229.201719 C32.7949418,240.086491 33.4884265,251.033732 33.5820084,261.994312 C33.5820084,266.36649 33.0050392,269.875843 31.8511006,272.522371 C30.6992173,275.166337 28.7661405,277.394693 26.3113124,278.908367 C23.7729,280.518748 20.3106639,281.899436 15.9246038,283.05043 C11.5385437,284.201423 6.23034242,285.467054 0,286.847321 L3.46244654,301 Z"></path>
            </g>
        </g>
    </g>
</svg>

<svg xmlns="http://www.w3.org/2000/svg" width="79" height="301">
  <path fill="#00F" fill-rule="nonzero" d="M3.46 301c6.9-.95 13.73-2.4 20.43-4.31 5.77-1.73 10.56-4.15 14.37-7.25a29.72 29.72 0 0 0 8.65-11.57c1.97-4.6 2.95-10.35 2.95-17.26 0-4.6-.23-9.78-.7-15.53-.46-5.75-.98-11.68-1.55-17.78-.58-6.1-1.1-12.08-1.56-17.95-.46-5.86-.7-11.21-.7-16.05 0-7.36.93-13.28 2.77-17.77 1.85-4.5 4.33-7.94 7.45-10.36a25.3 25.3 0 0 1 10.56-4.83 60.08 60.08 0 0 1 12.12-1.21V143.6c-4.07 0-8.13-.4-12.12-1.21a25.3 25.3 0 0 1-10.56-4.83c-3.11-2.42-5.6-5.87-7.44-10.36-1.85-4.49-2.78-10.41-2.77-17.78 0-4.83.23-10.24.69-16.22.46-5.98.98-12.08 1.56-18.3.57-6.21 1.1-12.3 1.55-18.3.47-5.97.7-11.38.7-16.21 0-6.9-.98-12.66-2.95-17.26a29.72 29.72 0 0 0-8.65-11.57c-3.81-3.1-8.6-5.52-14.37-7.25A145.9 145.9 0 0 0 3.46 0L0 14.15a434.2 434.2 0 0 1 15.93 3.8c4.38 1.15 7.84 2.53 10.38 4.14a14.14 14.14 0 0 1 5.54 6.39c1.16 2.64 1.73 6.15 1.73 10.53-.1 11.3-.79 22.6-2.07 33.82a352.1 352.1 0 0 0-2.08 37.63c0 7.36.75 13.4 2.25 18.12a39.8 39.8 0 0 0 5.71 11.74 24.24 24.24 0 0 0 7.97 7.07 78.34 78.34 0 0 0 9 4.15 78.23 78.23 0 0 0-9 4.14 25 25 0 0 0-7.97 6.9c-2.56 3.5-4.5 7.4-5.71 11.57-1.5 4.71-2.25 10.75-2.25 18.12 0 12.34.7 24.67 2.07 36.93a300.36 300.36 0 0 1 2.08 32.8c0 4.37-.57 7.88-1.73 10.52a14.14 14.14 0 0 1-5.54 6.39c-2.54 1.6-6 2.99-10.39 4.14A433.3 433.3 0 0 1 0 286.85L3.46 301z"/>
</svg>
